SVG_Azure_Grouped/Compute/Virtual Machine Continuous Delivery.svg

<?xml version="1.0" encoding="UTF-8" standalone="no"?>
<!-- Generated by Microsoft Visio, SVG Export Virtual Machine Continuous Delivery.svg Page-1 -->

<svg
   xmlns:dc="http://purl.org/dc/elements/1.1/"
   xmlns:cc="http://creativecommons.org/ns#"
   xmlns:rdf="http://www.w3.org/1999/02/22-rdf-syntax-ns#"
   xmlns:svg="http://www.w3.org/2000/svg"
   xmlns="http://www.w3.org/2000/svg"
   xmlns:sodipodi="http://sodipodi.sourceforge.net/DTD/sodipodi-0.dtd"
   xmlns:inkscape="http://www.inkscape.org/namespaces/inkscape"
   width="0.78736645in"
   height="0.70854872in"
   viewBox="0 0 56.690469 51.0157"
   xml:space="preserve"
   class="st6"
   version="1.1"
   id="svg44"
   sodipodi:docname="Virtual Machine Continuous Delivery.svg"
   style="font-size:12px;overflow:visible;color-interpolation-filters:sRGB;fill:none;fill-rule:evenodd;stroke-linecap:square;stroke-miterlimit:3"
   inkscape:version="0.92.5 (2060ec1f9f, 2020-04-08)"><metadata
   id="metadata50"><rdf:RDF><cc:Work
       rdf:about=""><dc:format>image/svg+xml</dc:format><dc:type
         rdf:resource="http://purl.org/dc/dcmitype/StillImage" /></cc:Work></rdf:RDF></metadata><defs
   id="defs48" /><sodipodi:namedview
   pagecolor="#ffffff"
   bordercolor="#666666"
   borderopacity="1"
   objecttolerance="10"
   gridtolerance="10"
   guidetolerance="10"
   inkscape:pageopacity="0"
   inkscape:pageshadow="2"
   inkscape:window-width="640"
   inkscape:window-height="480"
   id="namedview46"
   showgrid="false"
   inkscape:zoom="1.3879792"
   inkscape:cx="37.795194"
   inkscape:cy="34.010536"
   inkscape:window-x="0"
   inkscape:window-y="0"
   inkscape:window-maximized="0"
   inkscape:current-layer="svg44" />
	<style
   type="text/css"
   id="style2">
	<![CDATA[
		.st1 {fill:#3999c6;stroke:none;stroke-linecap:butt;stroke-width:38.25}
		.st2 {fill:#59b4d9;stroke:none;stroke-linecap:butt;stroke-width:38.25}
		.st3 {fill:#ffffff;fill-opacity:0.5;stroke:none;stroke-linecap:butt;stroke-width:38.25}
		.st4 {fill:#7a7a7a;stroke:none;stroke-linecap:butt;stroke-width:38.25}
		.st5 {fill:#a0a1a2;stroke:none;stroke-linecap:butt;stroke-width:38.25}
		.st6 {fill:none;fill-rule:evenodd;font-size:12px;overflow:visible;stroke-linecap:square;stroke-miterlimit:3}
	]]>
	</style>

	<g
   id="g42"
   transform="translate(-38.250149,-38.2543)">
		<title
   id="title4">Page-1</title>
		<g
   id="group11081-1"
   transform="translate(38.25,-38.25)">
			<title
   id="title6">Virtual Machine Continuous Delivery.11081</title>
			<g
   id="group11082-2">
				<title
   id="title8">Sheet.11082</title>
				<g
   id="shape11083-3"
   transform="translate(1.40669,-31.4857)">
					<title
   id="title10">Sheet.11083</title>
					<path
   d="m 30.56,110.99 -7.31,-3 -23.25,9.57 8.19,3.52 z m 8.88,3.64 -22.52,10.21 6.25,2.68 23.88,-9.76 z"
   class="st1"
   id="path12"
   inkscape:connector-curvature="0"
   style="fill:#3999c6;stroke:none;stroke-width:38.25;stroke-linecap:butt" />
				</g>
				<g
   id="shape11084-5"
   transform="translate(25.6606)">
					<title
   id="title15">Sheet.11084</title>
					<path
   d="M 10.15,116.53 A 11.4378,11.1724 0 0 1 23.67,105.55 V 87.76 L 0,97.83 v 29.69 l 11.96,-4.97 a 11.374,11.1101 0 0 1 -1.81,-6.02 z"
   class="st2"
   id="path17"
   inkscape:connector-curvature="0"
   style="fill:#59b4d9;stroke:none;stroke-width:38.25;stroke-linecap:butt" />
				</g>
				<g
   id="shape11085-7"
   transform="translate(25.6606)">
					<title
   id="title20">Sheet.11085</title>
					<path
   d="M 10.15,116.53 A 11.4378,11.1724 0 0 1 23.67,105.55 V 87.76 L 0,97.83 v 29.69 l 11.96,-4.97 a 11.374,11.1101 0 0 1 -1.81,-6.02 z"
   class="st3"
   id="path22"
   inkscape:connector-curvature="0"
   style="fill:#ffffff;fill-opacity:0.5;stroke:none;stroke-width:38.25;stroke-linecap:butt" />
				</g>
				<g
   id="shape11086-9"
   transform="translate(37.6406,-1.8067)">
					<title
   id="title25">Sheet.11086</title>
					<path
   d="m 9.52,108.91 c -5.25,0 -9.52,4.18 -9.52,9.31 0,5.13 4.27,9.3 9.52,9.3 5.26,0 9.53,-4.17 9.53,-9.3 0,-5.14 -4.27,-9.31 -9.53,-9.31 z m -4.6,13.18 c -0.32,-0.31 -0.35,-0.77 0,-1.11 l 2.7,-2.82 -2.13,-2.21 c -0.17,-0.17 -0.34,-0.33 -0.5,-0.5 -0.34,-0.36 -0.33,-0.82 0.02,-1.14 0.29,-0.28 0.8,-0.27 1.12,0.05 0.96,0.95 1.9,1.91 2.85,2.87 0.15,0.16 0.31,0.31 0.46,0.48 0.33,0.36 0.34,0.78 0,1.12 -1.13,1.09 -2.26,2.18 -3.4,3.26 a 0.772441,0.754521 0 0 1 -1.11969,0 z m 9.21,-3.26 c -1.13,1.09 -2.26,2.18 -3.4,3.26 a 0.772441,0.754521 0 0 1 -1.11614,0 C 9.29,121.78 9.27,121.32 9.61,120.98 l 2.7,-2.82 -2.13,-2.21 c -0.16,-0.17 -0.33,-0.33 -0.5,-0.5 -0.34,-0.36 -0.33,-0.82 0.03,-1.14 0.29,-0.28 0.8,-0.27 1.11,0.05 0.96,0.95 1.9,1.91 2.85,2.87 0.16,0.16 0.32,0.31 0.47,0.48 0.32,0.36 0.33,0.78 -0.01,1.12 z"
   class="st4"
   id="path27"
   inkscape:connector-curvature="0"
   style="fill:#7a7a7a;stroke:none;stroke-width:38.25;stroke-linecap:butt" />
				</g>
				<g
   id="shape11087-11">
					<title
   id="title30">Sheet.11087</title>
					<path
   d="m 17.47,95.63 v 7.68 L 12.8,97.69 8.1,99.48 V 91.35 L 0,87.77 v 29.98 l 23.66,9.77 V 98.14 Z m -1.21,15.78 c -0.47,0.31 -1.12,0.18 -1.35,-0.16 l -2.65,-3.84 v 8.38 c 0,0.36 -0.44,0.93 -1.07,0.93 -0.63,0 -1.07,-0.57 -1.07,-0.93 v -9.45 l -2.76,1.41 c -0.26,0.14 -0.96,0 -1.23,-0.5 -0.27,-0.5 0,-1.17 0.26,-1.31 l 4.77,-2.44 a 0.683858,0.667993 0 0 1 0.421654,-0.1419 0.708661,0.692221 0 0 1 0.570472,0.30111 L 12.19,103.7 l 4.43,6.42 c 0.24,0.35 0.12,0.97 -0.36,1.29 z"
   class="st2"
   id="path32"
   inkscape:connector-curvature="0"
   style="fill:#59b4d9;stroke:none;stroke-width:38.25;stroke-linecap:butt" />
				</g>
				<g
   id="shape11088-13"
   transform="translate(37.6406,-3.83144)">
					<title
   id="title35">Sheet.11088</title>
					<path
   d="m 3.61,127.52 2.61,-3.58 -0.18,0.17 a 0.772441,0.754521 0 0 1 -1.11969,0 C 4.6,123.8 4.57,123.35 4.92,123 l 2.7,-2.82 -2.13,-2.2 c -0.17,-0.17 -0.34,-0.33 -0.5,-0.5 -0.34,-0.37 -0.33,-0.82 0.02,-1.15 0.29,-0.27 0.8,-0.26 1.12,0.06 0.96,0.95 1.9,1.91 2.85,2.87 l 0.37,0.38 1.05,-1.44 -0.22,-0.22 c -0.16,-0.17 -0.33,-0.33 -0.49,-0.5 -0.35,-0.37 -0.34,-0.82 0.02,-1.15 0.29,-0.27 0.8,-0.26 1.11,0.06 l 0.52,0.51 3.28,-4.51 a 9.46063,9.24115 -180 0 0 -5.1,-1.45 9.53504,9.31384 -180 0 0 -9.52,9.3 c 0,2.95 1.42,5.58 3.61,7.28 z"
   class="st5"
   id="path37"
   inkscape:connector-curvature="0"
   style="fill:#a0a1a2;stroke:none;stroke-width:38.25;stroke-linecap:butt" />
				</g>
			</g>
		</g>
	</g>
</svg>

<?xml version="1.0" encoding="UTF-8" standalone="no"?>
<!DOCTYPE svg PUBLIC "-//W3C//DTD SVG 1.1//EN" "http://www.w3.org/Graphics/SVG/1.1/DTD/svg11.dtd">
<!-- Generated by Microsoft Visio, SVG Export Virtual Machine Continuous Delivery.svg Page-1 -->
<svg xmlns="http://www.w3.org/2000/svg" xmlns:xlink="http://www.w3.org/1999/xlink" xmlns:ev="http://www.w3.org/2001/xml-events"
		width="1.8499in" height="1.77116in" viewBox="0 0 133.193 127.524" xml:space="preserve" color-interpolation-filters="sRGB"
		class="st6">
	<style type="text/css">
	<![CDATA[
		.st1 {fill:#3999c6;stroke:none;stroke-linecap:butt;stroke-width:38.25}
		.st2 {fill:#59b4d9;stroke:none;stroke-linecap:butt;stroke-width:38.25}
		.st3 {fill:#ffffff;fill-opacity:0.5;stroke:none;stroke-linecap:butt;stroke-width:38.25}
		.st4 {fill:#7a7a7a;stroke:none;stroke-linecap:butt;stroke-width:38.25}
		.st5 {fill:#a0a1a2;stroke:none;stroke-linecap:butt;stroke-width:38.25}
		.st6 {fill:none;fill-rule:evenodd;font-size:12px;overflow:visible;stroke-linecap:square;stroke-miterlimit:3}
	]]>
	</style>

	<g>
		<title>Page-1</title>
		<g id="group10843-1" transform="translate(38.25,-38.25)">
			<title>Virtual Machine Continuous Delivery.10843</title>
			<g id="group10844-2">
				<title>Sheet.10844</title>
				<g id="shape10845-3" transform="translate(1.40669,-31.4857)">
					<title>Sheet.10845</title>
					<path d="M30.56 110.99 L23.25 107.99 L0 117.56 L8.19 121.08 L30.56 110.99 ZM39.44 114.63 L16.92 124.84 L23.17
								 127.52 L47.05 117.76 L39.44 114.63 Z" class="st1"/>
				</g>
				<g id="shape10846-5" transform="translate(25.6606,2.55795E-13)">
					<title>Sheet.10846</title>
					<path d="M10.15 116.53 A11.4378 11.1724 0 0 1 23.67 105.55 L23.67 87.76 L0 97.83 L0 127.52 L11.96 122.55 A11.374
								 11.1101 0 0 1 10.15 116.53 L10.15 116.53 Z" class="st2"/>
				</g>
				<g id="shape10847-7" transform="translate(25.6606,2.55795E-13)">
					<title>Sheet.10847</title>
					<path d="M10.15 116.53 A11.4378 11.1724 0 0 1 23.67 105.55 L23.67 87.76 L0 97.83 L0 127.52 L11.96 122.55 A11.374
								 11.1101 0 0 1 10.15 116.53 L10.15 116.53 Z" class="st3"/>
				</g>
				<g id="shape10848-9" transform="translate(37.6406,-1.8067)">
					<title>Sheet.10848</title>
					<path d="M9.52 108.91 C4.27 108.91 0 113.09 0 118.22 C0 123.35 4.27 127.52 9.52 127.52 C14.78 127.52 19.05 123.35
								 19.05 118.22 C19.05 113.08 14.78 108.91 9.52 108.91 ZM4.92 122.09 C4.6 121.78 4.57 121.32 4.92 120.98
								 L7.62 118.16 L5.49 115.95 C5.32 115.78 5.15 115.62 4.99 115.45 C4.65 115.09 4.66 114.63 5.01 114.31
								 C5.3 114.03 5.81 114.04 6.13 114.36 C7.09 115.31 8.03 116.27 8.98 117.23 C9.13 117.39 9.29 117.54
								 9.44 117.71 C9.77 118.07 9.78 118.49 9.44 118.83 C8.31 119.92 7.18 121.01 6.04 122.09 a0.772441
								 0.754521 0 0 1 -1.11969 1.42109E-14 ZM14.13 118.83 C13 119.92 11.87 121.01 10.73 122.09 a0.772441
								 0.754521 0 0 1 -1.11614 1.42109E-14 C9.29 121.78 9.27 121.32 9.61 120.98 L12.31 118.16 L10.18 115.95
								 C10.02 115.78 9.85 115.62 9.68 115.45 C9.34 115.09 9.35 114.63 9.71 114.31 C10 114.03 10.51 114.04
								 10.82 114.36 C11.78 115.31 12.72 116.27 13.67 117.23 C13.83 117.39 13.99 117.54 14.14 117.71 C14.46
								 118.07 14.47 118.49 14.13 118.83 Z" class="st4"/>
				</g>
				<g id="shape10849-11">
					<title>Sheet.10849</title>
					<path d="M17.47 95.63 L17.47 103.31 L12.8 97.69 L8.1 99.48 L8.1 91.35 L0 87.77 L0 117.75 L23.66 127.52 L23.66
								 98.14 L17.47 95.63 ZM16.26 111.41 C15.79 111.72 15.14 111.59 14.91 111.25 L12.26 107.41 L12.26 115.79
								 C12.26 116.15 11.82 116.72 11.19 116.72 C10.56 116.72 10.12 116.15 10.12 115.79 L10.12 106.34 L7.36
								 107.75 C7.1 107.89 6.4 107.75 6.13 107.25 C5.86 106.75 6.13 106.08 6.39 105.94 L11.16 103.5 a0.683858
								 0.667993 0 0 1 0.421654 -0.141905 a0.708661 0.692221 0 0 1 0.570472 0.301116 L12.19 103.7 L16.62
								 110.12 C16.86 110.47 16.74 111.09 16.26 111.41 L16.26 111.41 Z" class="st2"/>
				</g>
				<g id="shape10850-13" transform="translate(37.6406,-3.83144)">
					<title>Sheet.10850</title>
					<path d="M3.61 127.52 L6.22 123.94 L6.04 124.11 a0.772441 0.754521 0 0 1 -1.11969 0 C4.6 123.8 4.57 123.35 4.92
								 123 L7.62 120.18 L5.49 117.98 C5.32 117.81 5.15 117.65 4.99 117.48 C4.65 117.11 4.66 116.66 5.01
								 116.33 C5.3 116.06 5.81 116.07 6.13 116.39 C7.09 117.34 8.03 118.3 8.98 119.26 L9.35 119.64 L10.4
								 118.2 L10.18 117.98 C10.02 117.81 9.85 117.65 9.69 117.48 C9.34 117.11 9.35 116.66 9.71 116.33 C10
								 116.06 10.51 116.07 10.82 116.39 L11.34 116.9 L14.62 112.39 A9.46063 9.24115 -180 0 0 9.52 110.94
								 A9.53504 9.31384 -180 0 0 -0 120.24 C0 123.19 1.42 125.82 3.61 127.52 Z" class="st5"/>
				</g>
			</g>
		</g>
	</g>
</svg>
